X: 9366
T: Dancing On The Bridge
R: reel
M: 4/4
K: Amixolydian
"D"AAdA "A"AAeA|"D"fAed "G"BBGB|"D"AAdA "A"AAeA|1 "G"fedB "A"AAAB:|2 "G"fedB "A"A3 B||
"D"AAfA "A"AAeA|"D"fAed "G"BBGB|"D"AAfA "A"AAeA|"G"fedB "A"AAAB|
"D"AAfA "A"AAeA|"D/F#"fAed "G"BBGB|"D"AAdA "A"AAeA|"G"fedB "A"AAA2||

